X:32
T:The Marquis of Tullybardine
C: John Crerar
R: reel
M:C|
L:1/8
Z: Jason R. Fruit <jason@gmail.com>
K:A
{g}a !segno! || A/A/A (cA) eAAf | eAAa fedc | Bcde fBB^a | bBBa {fa}f2 (ea) |
A/A/A (cA) eAAf | !crescendo(!eAAa fedc | defa fecf | edc!crescendo)!B fefg |
{g}a>A A/A/A (cA).A.g | a>A A/A/A (fe).d.c | b>B B/B/B (dB).B.f | b>B B/B/B (fe).f.g |
{g}a>A A/A/A (cA).A.g | a>A A/A/A (fe).d.c | defa fecf | edcB {fa}f2 (ea) !segno!|| "_Last."!fermata![AE]8 |]

